!!!COM: Anon.
!!!OTL: Nove Geniture
!!!SCA: Folio 355
!!!YOR: from 'Thirty-Five Conductus for Two and Three Voices', p.119
!!!YOR: edited by Janet Knapp, Collegium Musicum No. 6, Yale University (1965)
!!!YOR: from the School of Notre Dame; circa 1170-1240
!!!YOO: Yale University
!!!YOY: 1965
**kern	**kern
*M6/8	*M6/8
=1	=1
8G	8d
4G	4d
8A	8c
4B	16B
.	16A
.	8G
=2	=2
4.c	4.F
8B	8G
4r	4r
=3	=3
8B	8F
4A	4A
8c	8G
4d	4D
=4	=4
4.c	4.F
8B	8G
4r	4r
=5	=5
8c	8c
4B	4d
8A	8e
4G	4d
=6	=6
4.A	4.c
8G	8d
4r	4r
=7	=7
8A	8A
16G	4B
16F	.
8E	.
8F	8c
4D	4d
=8	=8
4.E	4.G
8D	8A
4r	4r
=9	=9
8F	8c
4D	4d
8E	8c
4F	8B
.	8A
=10	=10
4.G	4.G
8F	8A
4r	4r
=11	=11
8A	8A
4B	16G
.	16F
.	8E
8c	8F
4B	4D
=12	=12
4.A	4.F
8G	8G
4r	4r
=13	=13
8A	8F
4D	4A
8E	8B
4F	4A
=14	=14
4.G	4.G
4.r	4.r
==	==
*-	*-
!!!ENC: David Huron
!!!YEC: Copyright 1987, David Huron
!!!EEV: 1.0
